X: 1693
T: Ma Seal's Polonaise Waltz
B: australian traditional tunes wiki
M:3/4
L:1/8
R: Waltz
Q: 1/4=100
K:G
V:1 
|:"G"d3B GB|d2G2g2|"D7"f3c Ac|e4d2|e3c Ac|e3A cA|e4(3ded|"G"B3D GB|
d3B GB|d2G2g2|"D7"f3e cA|e4d2|f3e (3ded|c3A FA|"G"G3 A Bd|g6:|
"G"b3g dg|b4c'2|b3g dg|"D7"a2d2f2|a3f df|a4b2|a3d ef|"G"g4d2|
g3d Bd|g3d Bd|"D7"f3c Ac|e4D2|"G"B3G DG|B4A2|G6-|G4a2|
"G"b3g dg|b4c'2|b3g dg|"D7"a2d2f2|a3f df|a4(3bc'b|a3d ef|"G"g2B2d2|
g3d Bd|G4(3gag|"D7"f3e (3cAc|e4d2|"G"b3d (3efa|"D7"b4a2|"G"g6-|g6||
% abcbook-tune_id 6342d53a9885ab457cbe7b27


% abcbook-boost 0
% abcbook-tablature 
% abcbook-transpose 
% abcbook-lastupdated 1665324378334
% abcbook-soundfonts 
% abcbook-repeats 1
% NFF Book 2008

